assets/features/icon-01.svg

<svg width="37" height="37" viewBox="0 0 37 37" fill="none" xmlns="http://www.w3.org/2000/svg">
<path d="M30.5801 8.30514H27.9926C28.6113 7.85514 29.1176 7.34889 29.3426 6.73014C29.6801 5.88639 29.6801 4.48014 27.9363 2.84889C26.0801 1.04889 24.3926 1.04889 23.3238 1.33014C20.9051 1.94889 19.2738 4.76139 18.3738 6.78639C17.4738 4.76139 15.8426 2.00514 13.4238 1.33014C12.3551 1.04889 10.6676 1.10514 8.81133 2.84889C7.06758 4.53639 7.12383 5.88639 7.40508 6.73014C7.63008 7.34889 8.13633 7.85514 8.75508 8.30514H5.71758C4.08633 8.30514 2.73633 9.65514 2.73633 11.2864V14.9989C2.73633 16.5739 4.03008 17.8676 5.60508 17.9239V31.6489C5.60508 33.5614 7.18008 35.1926 9.14883 35.1926H27.5426C29.4551 35.1926 31.0863 33.6176 31.0863 31.6489V17.8676C32.4926 17.6426 33.5613 16.4051 33.5613 14.9426V11.2301C33.5613 9.59889 32.2113 8.30514 30.5801 8.30514ZM23.9426 3.69264C23.9988 3.69264 24.1676 3.63639 24.3363 3.63639C24.7301 3.63639 25.3488 3.80514 26.1926 4.59264C26.8676 5.21139 27.0363 5.66139 26.9801 5.77389C26.6988 6.56139 23.8863 7.40514 20.6801 7.74264C21.4676 5.99889 22.6488 4.03014 23.9426 3.69264ZM10.4988 4.64889C11.3426 3.86139 11.9613 3.69264 12.3551 3.69264C12.5238 3.69264 12.6363 3.74889 12.7488 3.74889C14.0426 4.08639 15.2801 5.99889 16.0676 7.79889C12.8613 7.46139 10.0488 6.61764 9.76758 5.83014C9.71133 5.66139 9.88008 5.26764 10.4988 4.64889ZM5.26758 14.9426V11.2301C5.26758 11.0051 5.43633 10.7801 5.71758 10.7801H30.5801C30.8051 10.7801 31.0301 10.9489 31.0301 11.2301V14.9426C31.0301 15.1676 30.8613 15.3926 30.5801 15.3926H5.71758C5.49258 15.3926 5.26758 15.2239 5.26758 14.9426ZM27.5426 32.6614H9.14883C8.58633 32.6614 8.13633 32.2114 8.13633 31.6489V17.9239H28.4988V31.6489C28.5551 32.2114 28.1051 32.6614 27.5426 32.6614Z" fill="white"/>
</svg>

<svg xmlns="http://www.w3.org/2000/svg" width="37" height="37" fill="none"><path fill="#fff" d="M30.58 8.305h-2.587c.618-.45 1.125-.956 1.35-1.575.337-.844.337-2.25-1.407-3.881-1.856-1.8-3.543-1.8-4.612-1.519-2.419.619-4.05 3.431-4.95 5.456-.9-2.025-2.531-4.78-4.95-5.456-1.069-.281-2.756-.225-4.613 1.519C7.068 4.536 7.124 5.886 7.405 6.73c.225.619.731 1.125 1.35 1.575H5.718a3.001 3.001 0 0 0-2.982 2.981V15c0 1.575 1.294 2.869 2.87 2.925V31.65c0 1.912 1.574 3.544 3.543 3.544h18.394c1.912 0 3.543-1.575 3.543-3.544V17.868a2.964 2.964 0 0 0 2.475-2.925V11.23c0-1.631-1.35-2.925-2.98-2.925Zm-6.637-4.612c.056 0 .225-.057.393-.057.394 0 1.013.17 1.857.957.675.618.843 1.068.787 1.18-.281.788-3.094 1.632-6.3 1.97.788-1.744 1.969-3.713 3.263-4.05Zm-13.444.956c.844-.788 1.462-.956 1.856-.956.169 0 .281.056.394.056 1.294.337 2.531 2.25 3.319 4.05-3.207-.338-6.02-1.181-6.3-1.969-.057-.169.112-.562.73-1.181ZM5.268 14.943V11.23c0-.225.168-.45.45-.45H30.58c.225 0 .45.169.45.45v3.713c0 .225-.169.45-.45.45H5.718a.444.444 0 0 1-.45-.45ZM27.543 32.66H9.149c-.563 0-1.013-.45-1.013-1.012V17.924H28.5v13.725c.056.562-.394 1.012-.956 1.012Z"/></svg>
